X: 35
T:Fisher's Hornpipe
M:4/4
L:1/8
R:Hornpipe
K:D
(3ABc|"D"d>AF>A "A"G>BA>G|"D"F>DF>D "A"G>BA>G|"D"FDFD "G"GEGE |"D"FDFD "
A"E2(3AB
c|!
"D"dAFA "A"GBAG|"D"FDFD "G"GBAG|"A"ABcd efge|"D"d2 d2 d2:|!
cd|"A"e>cA>c e>gf>e|"D"f>dA>d f>ag>f|"A"e>cAc efgf|"A"edcB A2 A2|!
"G"BGDG BcdB|"D"AFDF A2 A2|"G"BdcB "A"AGFE| "D"D2 d2 D2:||
